img/icon-updated-8.svg

<svg fill="none" height="17" viewBox="0 0 16 17" width="16" xmlns="http://www.w3.org/2000/svg"><path clip-rule="evenodd" d="m1.5 8.47266c0-1.72391.68482-3.37721 1.90381-4.5962 1.21898-1.21898 2.87228-1.9038 4.59619-1.9038s3.3772.68482 4.5962 1.9038c1.219 1.21899 1.9038 2.87229 1.9038 4.5962 0 1.72394-.6848 3.37724-1.9038 4.59624-1.219 1.2189-2.87229 1.9038-4.5962 1.9038s-3.37721-.6849-4.59619-1.9038c-1.21899-1.219-1.90381-2.8723-1.90381-4.59624zm6.5-8.000004c-2.12173 0-4.15656.842854-5.65685 2.343144-1.500295 1.50029-2.34315 3.53512-2.34315 5.65686s.842855 4.15654 2.34315 5.65684c1.50029 1.5003 3.53512 2.3432 5.65685 2.3432 2.1217 0 4.1566-.8429 5.6569-2.3432 1.5002-1.5003 2.3431-3.5351 2.3431-5.65684s-.8429-4.15657-2.3431-5.65686c-1.5003-1.50029-3.5352-2.343144-5.6569-2.343144zm.5 4.750004c0-.19892-.07902-.38968-.21967-.53033-.14065-.14066-.33142-.21967-.53033-.21967s-.38968.07901-.53033.21967c-.14065.14065-.21967.33141-.21967.53033v3.5c.00003.14978.04492.29611.12886.42016.08395.12405.20311.22012.34214.27584l2.5 1.00004c.1831.0668.3851.0598.5631-.0197s.3181-.2252.3905-.4062.0715-.3831-.0025-.56345-.2154-.32479-.3941-.40269l-2.028-.812z" fill="#000" fill-rule="evenodd"/></svg>

<svg width="16" height="17" viewBox="0 0 16 17" fill="none" xmlns="http://www.w3.org/2000/svg">
<path fill-rule="evenodd" clip-rule="evenodd" d="M1.5 8.47266C1.5 6.74875 2.18482 5.09545 3.40381 3.87646C4.62279 2.65748 6.27609 1.97266 8 1.97266C9.72391 1.97266 11.3772 2.65748 12.5962 3.87646C13.8152 5.09545 14.5 6.74875 14.5 8.47266C14.5 10.1966 13.8152 11.8499 12.5962 13.0689C11.3772 14.2878 9.72391 14.9727 8 14.9727C6.27609 14.9727 4.62279 14.2878 3.40381 13.0689C2.18482 11.8499 1.5 10.1966 1.5 8.47266ZM8 0.472656C5.87827 0.472656 3.84344 1.31551 2.34315 2.8158C0.842855 4.31609 0 6.35092 0 8.47266C0 10.5944 0.842855 12.6292 2.34315 14.1295C3.84344 15.6298 5.87827 16.4727 8 16.4727C10.1217 16.4727 12.1566 15.6298 13.6569 14.1295C15.1571 12.6292 16 10.5944 16 8.47266C16 6.35092 15.1571 4.31609 13.6569 2.8158C12.1566 1.31551 10.1217 0.472656 8 0.472656V0.472656ZM8.5 5.22266C8.5 5.02374 8.42098 4.83298 8.28033 4.69233C8.13968 4.55167 7.94891 4.47266 7.75 4.47266C7.55109 4.47266 7.36032 4.55167 7.21967 4.69233C7.07902 4.83298 7 5.02374 7 5.22266V8.72266C7.00003 8.87244 7.04492 9.01877 7.12886 9.14282C7.21281 9.26687 7.33197 9.36294 7.471 9.41866L9.971 10.4187C10.1541 10.4855 10.3561 10.4785 10.5341 10.399C10.7121 10.3195 10.8522 10.1738 10.9246 9.9928C10.997 9.8118 10.9961 9.6097 10.9221 9.42935C10.8481 9.249 10.7067 9.10456 10.528 9.02666L8.5 8.21466V5.22266Z" fill="black"/>
</svg>
